svg/emoji_u2b07.svg

<svg enable-background="new 0 0 128 128" viewBox="0 0 128 128" xmlns="http://www.w3.org/2000/svg"><linearGradient id="a" x1="64" x2="64" y1="4.25" y2="124.41" gradientUnits="userSpaceOnUse"><stop stop-color="#40C4FF" offset="0"/><stop stop-color="#2DB5F9" offset=".3517"/><stop stop-color="#0091EA" offset="1"/></linearGradient><path d="m116 124h-104c-4.42 0-8-3.58-8-8v-104c0-4.42 3.58-8 8-8h104c4.42 0 8 3.58 8 8v104c0 4.42-3.58 8-8 8z" fill="url(#a)"/><g opacity=".2"><path d="m116 7c2.76 0 5 2.24 5 5v104c0 2.76-2.24 5-5 5h-104c-2.76 0-5-2.24-5-5v-104c0-2.76 2.24-5 5-5h104m0-3h-104c-4.42 0-8 3.58-8 8v104c0 4.42 3.58 8 8 8h104c4.42 0 8-3.58 8-8v-104c0-4.42-3.58-8-8-8z" fill="#424242"/></g><g opacity=".2"><path d="m68 22c2.21 0 4 1.79 4 4v46c0 1.1 0.9 2 2 2h13.99c3.44 0 5.27 4.05 3.01 6.63l-23.99 24c-0.8 0.91-1.9 1.37-3.01 1.37s-2.21-0.46-3.01-1.37l-23.99-24c-2.27-2.58-0.43-6.63 3.01-6.63h13.99c1.1 0 2-0.9 2-2v-46c0-2.21 1.79-4 4-4h8m0-3h-8c-3.86 0-7 3.14-7 7v45h-12.99c-2.78 0-5.22 1.57-6.37 4.11-1.15 2.53-0.73 5.41 1.11 7.5l0.14 0.14 23.93 23.94c1.33 1.47 3.21 2.31 5.19 2.31s3.87-0.84 5.19-2.31l23.93-23.94 0.14-0.14c1.83-2.09 2.26-4.97 1.11-7.5-1.16-2.54-3.61-4.11-6.39-4.11h-12.99v-45c0-3.86-3.14-7-7-7z" fill="#424242"/></g><path d="M91,80.63l-23.99,24c-1.59,1.82-4.43,1.82-6.02,0L37,80.63C34.73,78.05,36.57,74,40.01,74H54 c1.1,0,2-0.9,2-2V26c0-2.21,1.79-4,4-4h8c2.21,0,4,1.79,4,4v46c0,1.1,0.9,2,2,2h13.99C91.43,74,93.27,78.05,91,80.63z" fill="#FAFAFA"/></svg>

<svg width="128" height="128" style="enable-background:new 0 0 128 128;" xmlns="http://www.w3.org/2000/svg" xmlns:xlink="http://www.w3.org/1999/xlink">
  <g>
    <linearGradient id="SVGID_1_" gradientUnits="userSpaceOnUse" x1="64" x2="64" y1="4.25" y2="124.4088">
      <stop offset="0" style="stop-color:#40C4FF"/>
      <stop offset="0.3517" style="stop-color:#2DB5F9"/>
      <stop offset="1" style="stop-color:#0091EA"/>
    </linearGradient>
    <path d="M116,124H12c-4.42,0-8-3.58-8-8V12c0-4.42,3.58-8,8-8h104c4.42,0,8,3.58,8,8v104 C124,120.42,120.42,124,116,124z" style="fill:url(#SVGID_1_);"/>
    <g style="opacity:0.2;">
      <path d="M116,7c2.76,0,5,2.24,5,5v104c0,2.76-2.24,5-5,5H12c-2.76,0-5-2.24-5-5V12c0-2.76,2.24-5,5-5H116 M116,4H12c-4.42,0-8,3.58-8,8v104c0,4.42,3.58,8,8,8h104c4.42,0,8-3.58,8-8V12C124,7.58,120.42,4,116,4L116,4z" style="fill:#424242;"/>
    </g>
    <g style="opacity:0.2;">
      <path d="M68,22c2.21,0,4,1.79,4,4v46c0,1.1,0.9,2,2,2h13.99c3.44,0,5.27,4.05,3.01,6.63l-23.99,24 c-0.8,0.91-1.9,1.37-3.01,1.37s-2.21-0.46-3.01-1.37L37,80.63C34.73,78.05,36.57,74,40.01,74H54c1.1,0,2-0.9,2-2V26 c0-2.21,1.79-4,4-4H68 M68,19h-8c-3.86,0-7,3.14-7,7v45H40.01c-2.78,0-5.22,1.57-6.37,4.11c-1.15,2.53-0.73,5.41,1.11,7.5 l0.07,0.07l0.07,0.07l23.93,23.94c1.33,1.47,3.21,2.31,5.19,2.31c1.98,0,3.87-0.84,5.19-2.31l23.93-23.94l0.07-0.07l0.07-0.07 c1.83-2.09,2.26-4.97,1.11-7.5C93.22,72.57,90.77,71,87.99,71H75V26C75,22.14,71.86,19,68,19L68,19z" style="fill:#424242;"/>
    </g>
    <path d="M91,80.63l-23.99,24c-1.59,1.82-4.43,1.82-6.02,0L37,80.63C34.73,78.05,36.57,74,40.01,74H54 c1.1,0,2-0.9,2-2V26c0-2.21,1.79-4,4-4h8c2.21,0,4,1.79,4,4v46c0,1.1,0.9,2,2,2h13.99C91.43,74,93.27,78.05,91,80.63z" style="fill:#FAFAFA;"/>
  </g>
</svg>
